www/assets/icons/tips_and_updates.svg

<svg xmlns="http://www.w3.org/2000/svg" width="24" height="24" viewBox="0 0 24 24" fill='currentColor'><path d="M6.25 21h4c0 1.1-.9 2-2 2s-2-.9-2-2m-2-1h8v-2h-8zm11.5-9.5c0 3.82-2.66 5.86-3.77 6.5H4.52C3.41 16.36.75 14.32.75 10.5.75 6.36 4.11 3 8.25 3s7.5 3.36 7.5 7.5m4.87-2.13L19.25 9l1.37.63.63 1.37.63-1.37L23.25 9l-1.37-.63L21.25 7zM18.25 7l.94-2.06L21.25 4l-2.06-.94L18.25 1l-.94 2.06-2.06.94 2.06.94z"/></svg>

<svg width="24" height="24" viewBox="0 0 24 24" xmlns="http://www.w3.org/2000/svg" fill='currentColor'><path d="M6.25 21H10.25C10.25 22.1 9.35 23 8.25 23C7.15 23 6.25 22.1 6.25 21ZM4.25 20H12.25V18H4.25V20ZM15.75 10.5C15.75 14.32 13.09 16.36 11.98 17H4.52C3.41 16.36 0.75 14.32 0.75 10.5C0.75 6.36 4.11 3 8.25 3C12.39 3 15.75 6.36 15.75 10.5ZM20.62 8.37L19.25 9L20.62 9.63L21.25 11L21.88 9.63L23.25 9L21.88 8.37L21.25 7L20.62 8.37ZM18.25 7L19.19 4.94L21.25 4L19.19 3.06L18.25 1L17.31 3.06L15.25 4L17.31 4.94L18.25 7Z"/></svg>
